src/Assets/icons/instructor.svg

<svg width="52" height="52" viewBox="0 0 52 52" fill="none" xmlns="http://www.w3.org/2000/svg">
<circle cx="26" cy="26" r="26" fill="#2E2BA6"/>
<path fill-rule="evenodd" clip-rule="evenodd" d="M32.7384 12.3734C34.3572 13.9923 35.36 16.2307 35.36 18.7038C35.36 21.1768 34.3572 23.4152 32.7384 25.0341C31.1177 26.6547 28.8793 27.6575 26.4063 27.6575C23.9332 27.6575 21.6948 26.6547 20.0742 25.0341C18.4553 23.4152 17.4525 21.1768 17.4525 18.7038C17.4525 16.2307 18.4553 13.9923 20.0742 12.3734C21.6948 10.7528 23.9332 9.75 26.4063 9.75C28.8793 9.75 31.1177 10.7528 32.7384 12.3734ZM26.4062 41.795C19.043 41.795 14.625 39.7529 14.625 37.7108C14.625 33.6267 19.043 29.5425 26.4062 29.5425C33.5653 29.5425 38.1875 33.6267 38.1875 37.7108C38.1875 39.7529 33.314 41.795 26.4062 41.795Z" fill="#D23C8F"/>
<path fill-rule="evenodd" clip-rule="evenodd" d="M32.7384 12.3734C34.3572 13.9923 35.36 16.2307 35.36 18.7038C35.36 21.1768 34.3572 23.4152 32.7384 25.0341C31.1177 26.6547 28.8793 27.6575 26.4063 27.6575C23.9332 27.6575 21.6948 26.6547 20.0742 25.0341C18.4553 23.4152 17.4525 21.1768 17.4525 18.7038C17.4525 16.2307 18.4553 13.9923 20.0742 12.3734C21.6948 10.7528 23.9332 9.75 26.4063 9.75C28.8793 9.75 31.1177 10.7528 32.7384 12.3734ZM26.4062 41.795C19.043 41.795 14.625 39.7529 14.625 37.7108C14.625 33.6267 19.043 29.5425 26.4062 29.5425C33.5653 29.5425 38.1875 33.6267 38.1875 37.7108C38.1875 39.7529 33.314 41.795 26.4062 41.795Z" fill="url(#paint0_linear_44_1166)" fill-opacity="0.2"/>
<defs>
<linearGradient id="paint0_linear_44_1166" x1="26.4062" y1="9.75" x2="26.8125" y2="37.375" gradientUnits="userSpaceOnUse">
<stop stop-opacity="0"/>
<stop offset="1"/>
</linearGradient>
</defs>
</svg>

<svg xmlns="http://www.w3.org/2000/svg" xmlns:xlink="http://www.w3.org/1999/xlink" width="52" height="52" fill="none" xmlns:v="https://vecta.io/nano"><circle cx="26" cy="26" r="26" fill="#2e2ba6"/><g fill-rule="evenodd"><use xlink:href="#B" fill="#d23c8f"/><use xlink:href="#B" fill="url(#A)" fill-opacity=".2"/></g><defs><linearGradient id="A" x1="26.406" y1="9.75" x2="26.813" y2="37.375" gradientUnits="userSpaceOnUse"><stop stop-opacity="0"/><stop offset="1"/></linearGradient><path id="B" d="M32.738 12.373c1.619 1.619 2.622 3.857 2.622 6.33s-1.003 4.711-2.622 6.33-3.859 2.623-6.332 2.623-4.712-1.003-6.332-2.623-2.622-3.857-2.622-6.33 1.003-4.712 2.622-6.33 3.859-2.623 6.332-2.623 4.711 1.003 6.332 2.623zm-6.332 29.422c-7.363 0-11.781-2.042-11.781-4.084 0-4.084 4.418-8.168 11.781-8.168 7.159 0 11.781 4.084 11.781 8.168 0 2.042-4.873 4.084-11.781 4.084z"/></defs></svg>
